teeny/solid/bath.svg

<svg width="15" height="15" viewBox="0 0 15 15" fill="none" xmlns="http://www.w3.org/2000/svg">
<path d="M2 3.5C2 2.11929 3.11929 1 4.5 1H6V2H7V0H4.5C2.567 0 1 1.567 1 3.5V7H0V8H1V9.5C1 11.2632 2.30385 12.7219 4 12.9646V15H5V13H10V15H11V12.9646C12.6961 12.7219 14 11.2632 14 9.5V8H15V7H2V3.5Z" fill="black"/>
<path d="M8 4H5V3H8V4Z" fill="black"/>
</svg>

<svg viewBox="0 0 15 15" xmlns="http://www.w3.org/2000/svg"><g><path d="M2 3.5C2 2.11 3.11 1 4.5 1H6v1h1V0H4.5C2.56 0 1 1.567 1 3.5V7H0v1h1v1.5c0 1.76 1.3 3.22 3 3.46v2.03h1v-2h5v2h1v-2.04c1.69-.25 3-1.71 3-3.47v-1.5h1v-1H2v-3.5Z"/><path d="M8 4H5V3h3v1Z"/></g></svg>
